packages/bezier-icons/icons/goal.svg

<svg width="24" height="24" viewBox="0 0 24 24" fill="none" xmlns="http://www.w3.org/2000/svg">
<path d="M12.0002 20.0001V22.0001C17.5142 22.0001 22.0002 17.5141 22.0002 12.0001C22.0002 6.48611 17.5142 2.00011 12.0002 2.00011C6.4862 2.00011 2.0002 6.48611 2.0002 12.0001H4.0002C4.0002 7.58911 7.5892 4.00011 12.0002 4.00011C16.4112 4.00011 20.0002 7.58911 20.0002 12.0001C20.0002 16.4111 16.4112 20.0001 12.0002 20.0001Z" fill="#313234"/>
<path d="M12.0002 9.9991C10.8962 9.9991 10.0002 10.8951 10.0002 11.9991C10.0002 12.1785 10.0238 12.3523 10.0681 12.5177L6.58579 16H4.91422C4.649 16 4.39465 16.1054 4.20711 16.2929L1.92678 18.5732C1.76929 18.7307 1.88083 19 2.10356 19H5.00001V21.8964C5.00001 22.1192 5.26929 22.2307 5.42678 22.0732L7.70711 19.7929C7.89465 19.6054 8.00001 19.351 8.00001 19.0858V17.4142L11.4827 13.9315C11.6478 13.9756 11.8213 13.9991 12.0002 13.9991C13.1042 13.9991 14.0002 13.1041 14.0002 11.9991C14.0002 10.8951 13.1042 9.9991 12.0002 9.9991Z" fill="#313234"/>
</svg>

<svg xmlns="http://www.w3.org/2000/svg" width="24" height="24" fill="none" viewBox="0 0 24 24"><path fill="#313234" d="M12 20v2c5.514 0 10-4.486 10-10S17.514 2 12 2 2 6.486 2 12h2c0-4.41 3.59-8 8-8s8 3.59 8 8-3.589 8-8 8"/><path fill="#313234" d="M12 10a2 2 0 0 0-1.932 2.518L6.586 16H4.914a1 1 0 0 0-.707.293l-2.28 2.28a.25.25 0 0 0 .177.427H5v2.896c0 .223.27.335.427.177l2.28-2.28A1 1 0 0 0 8 19.086v-1.672l3.483-3.483A2.003 2.003 0 0 0 14 12a2 2 0 0 0-2-2"/></svg>
